**kern	**text
*clefG2	*
*k[f#c#g#d#]	*
*M4/4	*
*MM125	*
=1	=1
4e	こ
4b	の
8cc#L	せ
8b	か
8b	い
[8aJ	の
=2	=2
8a]	.
4g#	め
[8f#	ろ
8f#]	.
[4.e	でぃ
=3	=3
8eL]	.
8eJ	わ
4b	た
8cc#	し
4b	の
[8a	う
=4	=4
8a]	.
4g#	た
[8cc#	ご
8cc#]	.
[4.b	え
=5	=5
8bL]	.
8eJ	と
4b	ど
8cc#	い
4b	て
[8a	い
=6	=6
8a]	.
4g#	る
[8f#	か
8f#]	.
[4.e	な
=7	=7
8eL]	.
8BJ	ひ
4e	び
8f#	い
4g#	て
[8a	い
=8	=8
8a]	.
4g#	る
[8f#	か
8f#]	.
4.e	な
=9	=9
4e	こ
4b	の
8cc#L	せ
8b	か
8b	い
[8aJ	の
=10	=10
8a]	.
4g#	め
[8f#	ろ
8f#]	.
[4.e	でぃ
=11	=11
8eL]	.
8eJ	わ
4b	た
8cc#	し
4b	の
[8a	う
=12	=12
8a]	.
4g#	た
[8cc#	ご
8cc#]	.
[4.b	え
=13	=13
8bL]	.
8eJ	と
4b	ど
8cc#	い
4b	て
[8a	い
=14	=14
8a]	.
4g#	る
[8f#	か
8f#]	.
[4.e	な
=15	=15
8eL]	.
8BJ	ひ
4e	び
8f#	い
4g#	て
[8a	い
=16	=16
8a]	.
4g#	る
[8f#	か
8f#]	.
[4.e	な
=17	=17
1e_	.
=18	=18
1e_	.
=19	=19
1e_	.
=20	=20
1e_	.
=21	=21
1e_	.
=22	=22
1e_	.
=23	=23
1e_	.
=24	=24
1e_	.
=25	=25
1e_	.
=26	=26
1e_	.
=27	=27
1e_	.
=28	=28
1e_	.
=29	=29
1e_	.
=30	=30
1e_	.
=31	=31
1e_	.
=32	=32
1e_	.
=33	=33
2e]	.
4e	て
4e	の
=34	=34
4e	ひ
8d#L	ら
[8eJ	か
8e]	.
4.e	ら
=35	=35
4B	こ
4g#	ぼ
8a	れ
4g#	お
[8g#	ち
=36	=36
8g#]	.
[4.e	た
2e_	.
=37	=37
2e]	.
4e	お
4e	と
=38	=38
4e	の
8d#L	つ
[8eJ	ぶ
8e]	.
4.e	お
=39	=39
4B	さ
4g#	が
8a	し
4b	て
[8e	る
=40	=40
8e]	.
[4.e	の
2e_	.
=41	=41
2e]	.
4e	ぱ
4e	け
=42	=42
4e	じ
8d#L	に
8eJ	つ
8f#	め
4.e	た
=43	=43
4B	こ
4g#	の
8a	お
4g#	も
[8f#	い
=44	=44
8f#]	.
[4.e	お
2e_	.
=45	=45
2e]	.
4e	つ
4e	た
=46	=46
4e	え
8f#L	た
[8eJ	い
8e]	.
4.e	の
=47	=47
4B	あ
4g#	な
8a	た
4b	に
[8e	だ
=48	=48
8e]	.
[4.e	け
2e_	.
=49	=49
2e]	.
4e	う
4e	ま
=50	=50
4e	く
4f#	う
8e	た
4.d#	え
=51	=51
8e	る
[4.g#	と
4.g#]	.
8a	い
=52	=52
8g#	い
[4.e	な
2e_	.
=53	=53
2e]	.
4b	ちゃ
4b	ん
=54	=54
4e	と
4cc#	で
8cc#	き
4g#	る
[8f#	よ
=55	=55
8f#L]	.
8BJ	に
4e	が
8f#	ん
4g#	ば
[8cc#	る
=56	=56
8cc#]	.
[4.b	よ
2b]	.
=57	=57
4e	こ
4b	の
8cc#L	せ
8b	か
8b	い
[8aJ	の
=58	=58
8a]	.
4g#	め
[8f#	ろ
8f#]	.
[4.e	でぃ
=59	=59
8eL]	.
8eJ	わ
4b	た
8cc#	し
4b	の
[8a	う
=60	=60
8a]	.
4g#	た
[8cc#	ご
8cc#]	.
[4.b	え
=61	=61
8bL]	.
8eJ	と
4b	ど
8cc#	い
4b	て
[8a	い
=62	=62
8a]	.
4g#	る
[8f#	か
8f#]	.
[4.e	な
=63	=63
8eL]	.
8BJ	ひ
4e	び
8f#	い
4g#	て
[8a	い
=64	=64
8a]	.
4g#	る
[8f#	か
8f#]	.
4.e	な
=65	=65
4e	こ
4b	の
8cc#L	せ
8b	か
8b	い
8aJ	に
=66	=66
8a	え
4g#	が
[8f#	お
8f#]	.
[4.e	お
=67	=67
8eL]	.
8eJ	わ
4b	た
8cc#	し
4b	と
[8a	あ
=68	=68
8a]	.
4g#	な
[8cc#	た
8cc#]	.
[4.b	で
=69	=69
8bL]	.
8eJ	と
4b	ど
8cc#	い
4b	て
[8a	い
=70	=70
8a]	.
4g#	る
[8f#	で
8f#]	.
[4.e	しょ
=71	=71
8eL]	.
8eJ	ひ
4b	び
8cc#	い
4b	て
[8ee	い
=72	=72
8ee]	.
4dd#	る
[8ff#	よ
8ff#]	.
[4.ee	ね
=73	=73
2ee]	.
2r	.
==	==
*-	*-
